X: 1
T: Devoj\vce, devoj\vce
M: 2.3.2.2/8
L: 1/8
K: Edor
"Vocal:"\
|: ef g2a gf g2 | aa a2f gf e2 :|
|: aa a2f gf e2 |1,3 ef gfe f2 f2 :|2,4 ef gfa e2 e2 :|
"Instr:"\
|: ef gfe dc BA | cd efd e2 e2 :|
